X:132
T:  ES GIENG EIN MATROSE WOL UEBER DEN GRUND
N: E0069
O: Europa, Mitteleuropa, Deutschland, Schleswig - Holstein, Achtrup
R: erzaehlendes Volks - Lied, Sage, Liebe
M: 6/8
L: 1/16
K: F
C2 | C2F2A2c2A2F2 | E3EG2B2G2
E2 | F3FA2c2A2F2 | G6z4
FB | d2B2d2f2e2d2 | c2F2A2c4
d2 | c4G2B2A2G2 | A4d2c4
c2 | d2B2d2f2e2d2 | c2F2A2c4
d2 | c4G2B2A2G2 | F6z4

